X:691
T:
N:Brudmarsch,
S:efter »Florsen» i Burs.
O:Gotland, Burs
R:marsch
M:C
L:1/8
K:C
c2 {e}e2 {g}g2 {c'}c'2|g>agf e2 g>f|e2 f>e d2 g2|
a>gab g2 g>g|g4 z2 z2::c2 c'>c' c'bag|
a>ba^g a2 f2|eg- (g/e/f/d/) c2 (3BAB|d2 c>c c2 z2:|

